!!!OTL: When Johnny Comes Marching Home
!!!COM: Lambert, Louis
!!!ODT: 1863
!!!YOR: The Folksong Fake Book
!!!YOY: 2000
!!!AST: Patriotic song
!!!YEC: Brian Luke, 2001
**kern	**harm
*k[f#]	*k[f#]
*M6/8	*M6/8
*e:	*e:
*>A	*>A
8B	.
=1	=1
8B	i
8e	.
8e	.
4e	.
8f#	.
=2	=2
4g	.
8f#	.
4g	.
8e	.
=3	=3
[4.d	III
4d]	.
8B	.
=4	=4
[4.d	.
4d]	.
*>A'	*>A'
8B	.
=5	=5
8B	i
8e	.
8e	.
4e	.
8f#	.
=6	=6
4g	.
8f#	.
4g	.
8a	.
=7	=7
[4.b	III
4b]	.
8g	.
=8	=8
[4.b	V7
4b]	.
*>B	*>B
16g	.
16a	.
=9	=9
4b	.
8b	.
8b	.
8a	.
8g	.
=10	=10
4a	.
8a	.
4a	.
8f#	.
=11	=11
4g	VI
8g	.
8g	.
8f#	.
8e	.
=12	=12
4f#	V7
8f#	.
8f#	.
8g	.
8a	.
=13	=13
4.b	i
4.a	iv
=14	=14
4.g	ic
4.f#	V
=15	=15
8B	i
8e	.
8e	.
4e	.
8d	V/III
=16	=16
2.e	i;
*-	*-
